!!!COM: Scriabin, Alexander
!!!OTL@@FR: Prélude en do majeur
!!!OTL@@EN: Prelude in C Major
!!!OPR@@FR: 3 Préludes
!!!OPR@@EN: 3 Preludes
!!!OPS: 35
!!!ONM: 3
!!!ODT: 1903
!!!AGN: Prelude
**kern	**kern	**dynam
*staff2	*staff1	*staff1/2
*Ipiano	*Ipiano	*
*clefF4	*clefG2	*
*k[]	*k[]	*
*C:	*C:	*
*M3/8	*M3/8	*
8EE 8E	8c 8g 8cc	.
=1	=1	=1
[4.EE-X [4.E-X	[4.d-X [4.g [4.cc [4.ee-X	.
=2	=2	=2
8.EE-L] 8.E-]	8.d-L] 8.g] 8.cc] 8.ee-]	.
16EE-Xk 16E-X	16d-Xk 16g-X	.
8EE-J 8E-	8d-J 8gn	.
=3	=3	=3
4AAA-X 4AA-X	4c 4b-X	.
8AA- 8A-X	[8c 8a-X	.
=4	=4	=4
4DD 4D	4c] 4f#X 4cc	.
8DD 8D	8F#X 8c 8e-X	.
=5	=5	=5
[4.GGG [4.GG	[4.G [4.B 4.e-X	.
=6	=6	=6
8GGG] 8GG]	8G] 8B] 8d	.
8r	8r	.
8AA 8A	8f 8cc 8ff	.
=7	=7	=7
[4.AA-X [4.A-X	[4.g-X [4.cc [4.ff [4.aa-X	.
=8	=8	=8
8.AA-L] 8.A-]	8.g-L] 8.cc] 8.ff] 8.aa-]	.
16AA-Xk 16A-X	16g-Xk 16cc-X	.
8AA-J 8A-	8g-J 8ccn	.
=9	=9	=9
4DD-X 4D-X	4f 4ee-X	.
8D- 8d-X	8f 8dd-X	.
=10	=10	=10
4GG 4G	4f 4b 4ff	.
8GG 8G	8f 8g 8b	.
=11	=11	=11
[4.CC [4.C	[4.e [4.g [4.cc	.
=12	=12	=12
4CC] 4C]	4e] 4g] 4cc]	.
8r	8cc	.
=13	=13	=13
*	*^	*
[4.BB-X [4.G-X [4.c	[4.g-X [4.b-X	[4.ee-X	.
=14	=14	=14	=14
4BB-- 4G-] 4c]	4g-] 4b-]	4ee-]	.
[8BB-X [8G-X [8d-X	[8g-X [8b-X	[8dd-X	.
=15	=15	=15	=15
8BB-] 8G-] 8d-]	8g-] 8b-]	8dd-]	.
8r	8rc	8raa	.
8BBB-X 8BB-X	8rc	8G-X 8d-X 8g-X	.
*	*v	*v	*
=16	=16	=16
[4.CC [4.C	[4.Gn [4.B-X [4.f	.
=17	=17	=17
4CC] 4C]	4G] 4B-] 4f]	.
[8CC [8C	[8G [8B-X [8e	.
=18	=18	=18
8CC] 8C]	8G] 8B-] 8e]	.
8r	8r	.
8r	8g	.
=19	=19	=19
*	*^	*
[4.FF [4.D-X [4.G	[4.d-X [4.f	[4.b-X	.
=20	=20	=20	=20
4FF] 4D-] 4G]	4d-] 4f]	4b-]	.
[8FF [8D-X [8A-X	[8d-X [8f	[8a-X	.
=21	=21	=21	=21
8FF] 8D-] 8A-]	8d-] 8f]	8a-]	.
8r	8rc	8raa	.
8FFF 8FF	8rc	8D-X 8A-X 8d-X	.
*	*v	*v	*
=22	=22	=22
[4.GGG [4.GG	[4.Dn [4.F [4.c	.
=23	=23	=23
4GGG] 4GG]	4D] 4F] 4c]	.
[8GGG [8GG	[8D [8F [8B	.
=24	=24	=24
8GGG] 8GG]	8D] 8F] 8B]	.
8r	8r	.
8EE 8E	8c 8g 8cc	.
=25	=25	=25
[4.EE-X [4.E-X	[4.d-X [4.g [4.cc [4.ee-X	.
=26	=26	=26
8.EE-L] 8.E-]	8.d-L] 8.g] 8.cc] 8.ee-]	.
16EE-Xk 16E-X	16d-Xk 16g-X	.
8EE-J 8E-	8d-J 8gn	.
=27	=27	=27
4AAA-X 4AA-X	4c 4b-X	.
8AA- 8A-X	[8c 8a-X	.
=28	=28	=28
4DD 4D	4c] 4f#X 4cc	.
8DD 8D	8F#X 8c 8e-X	.
=29	=29	=29
[4.GGG [4.GG	[4.G [4.B 4.e-X	.
=30	=30	=30
8GGG] 8GG]	8G] 8B] 8d	.
8r	8r	.
8AA 8A	8f 8cc 8ff	.
=31	=31	=31
[4.AA-X [4.A-X	[4.g-X [4.cc [4.ff [4.aa-X	.
=32	=32	=32
8.AA-L] 8.A-]	8.g-L] 8.cc] 8.ff] 8.aa-]	.
16AA-Xk 16A-X	16g-Xk 16cc-X	.
8AA-J 8A-	8g-J 8ccn	.
=33	=33	=33
4DD-X 4D-X	4f 4ee-X	.
8D- 8d-X	8f 8dd-X	.
=34	=34	=34
4GG 4G	4f 4b 4ff	.
8GG 8G	8f 8g 8b	.
=35	=35	=35
4.CC 4.C	4.e 4.g 4.cc	.
=36	=36	=36
4.r	4.r	.
*	*clefF4	*
=37	=37	=37
4.GGG 4.GG	[4.E-X [4.G [4.B-X	.
=38	=38	=38
4.BBB-X 4.BB-X	4E-] 4G] 4B-]	.
.	[8E-X [8B-X [8c	.
=39	=39	=39
[4.GGG [4.GG	4E-] 4B-] 4c]	.
.	8F 8B-X 8d	.
=40	=40	=40
4.GGG] 4.GG]	[4.F [4.B-X [4.d	.
=41	=41	=41
4.BBB-X 4.BB-X	4F] 4B-] 4d]	.
.	[8E-X [8B-X [8c [8e-X	.
=42	=42	=42
[4.GGG [4.GG	4E-] 4B-] 4c] 4e-]	.
*	*clefG2	*
.	8B-X 8d 8f	.
=43	=43	=43
4.GGG] 4.GG]	[4.B-X [4.d [4.f	.
=44	=44	=44
4.BBB-X 4.BB-X	4B-] 4d] 4f]	.
.	8B-X 8e-X 8g	.
=45	=45	=45
*	*^	*
4.GGG 4.GG	4.B-X	4e-X 4f 4a-X	.
.	.	8e- 8g 8b-X	.
*	*v	*v	*
=46	=46	=46
8EE-X 8C-X 8G-X	8c-X 8e-X 8g-X 8cc-X	.
8r	8r	.
8r	8r	.
=47	=47	=47
8FF 8Cn 8F	8A 8e-X 8f 8a	.
8r	8r	.
8r	8r	.
=48	=48	=48
8BB-X 8F	8B-X 8d 8f 8b-X	.
8r	8r	.
8r	8r	.
*	*clefF4	*
=49	=49	=49
4.GGG 4.GG	[4.E-X [4.G [4.B-X	.
=50	=50	=50
4.BBB-X 4.BB-X	4E-] 4G] 4B-]	.
.	[8E-X [8B-X [8c	.
=51	=51	=51
[4.GGG [4.GG	4E-] 4B-] 4c]	.
.	8F 8B-X 8d	.
=52	=52	=52
4.GGG] 4.GG]	[4.F [4.B-X [4.d	.
=53	=53	=53
4.BBB-X 4.BB-X	4F] 4B-] 4d]	.
.	[8E-X [8B-X [8c [8e-X	.
=54	=54	=54
[4.GGG [4.GG	4E-] 4B-] 4c] 4e-]	.
*	*clefG2	*
.	8B-X 8d 8f	.
=55	=55	=55
4.GGG] 4.GG]	[4.B-X [4.d [4.f	.
=56	=56	=56
4.BBB-X 4.BB-X	4B-] 4d] 4f]	.
.	8B-X 8e-X 8g	.
=57	=57	=57
*	*^	*
4.GGG 4.GG	4.B-X	4e-X 4f 4a-X	.
.	.	8e- 8g 8b-X	.
*	*v	*v	*
=58	=58	=58
8EE-X 8C-X 8G-X	8c-X 8e-X 8g-X 8cc-X	.
8r	8r	.
8r	8r	.
=59	=59	=59
8FF 8Cn 8F	8A 8e-X 8f 8a	.
8r	8r	.
8r	8r	.
=60	=60	=60
8BB-X 8F	8B-X 8d 8f 8b-X	.
8r	8r	.
8r	8r	.
=61	=61	=61
4.FF 4.F	[4.d-X [4.f [4.a-X	.
=62	=62	=62
4.AA-X 4.A-X	4d-] 4f] 4a-]	.
.	[8d-X [8a-X [8b-X	.
=63	=63	=63
[4.FF [4.F	4d-] 4a-] 4b-]	.
.	8e-X 8a-X 8cc	.
=64	=64	=64
4.FF] 4.F]	[4.e-X [4.a-X [4.cc	.
=65	=65	=65
4.AA-X 4.A-X	4e-] 4a-] 4cc]	.
.	[8d-X [8a-X [8b-X [8dd-X	.
=66	=66	=66
[4.FF [4.F	4d-] 4a-] 4b-] 4dd-]	.
.	8a-X 8cc 8ee-X	.
=67	=67	=67
4.FF] 4.F]	[4.a-X [4.cc [4.ee-X	.
=68	=68	=68
4.AA-X 4.A-X	4a-] 4cc] 4ee-]	.
.	8a-X 8dd-X 8ff	.
=69	=69	=69
*	*^	*
4.FF 4.F	4.a-X	4dd-X 4ee-X 4gg-X	.
.	.	8dd- 8ff 8aa-X	.
*	*v	*v	*
=70	=70	=70
8FF 8D-X 8A-X	8a-X 8cc 8ff 8aa-X	.
8r	8r	.
8r	8r	.
=71	=71	=71
8GG 8Dn 8G	8B 8f 8g 8b	.
8r	8r	.
8r	8r	.
=72	=72	=72
8C 8G	8c 8e 8g 8cc	.
8r	8r	.
8r	8r	.
=73	=73	=73
4.FF 4.F	[4.d-X [4.f [4.a-X	.
=74	=74	=74
4.AA-X 4.A-X	4d-] 4f] 4a-]	.
.	[8d-X [8a-X [8b-X	.
=75	=75	=75
[4.FF [4.F	4d-] 4a-] 4b-]	.
.	8e-X 8a-X 8cc	.
=76	=76	=76
4.FF] 4.F]	[4.e-X [4.a-X [4.cc	.
=77	=77	=77
4.AA-X 4.A-X	4e-] 4a-] 4cc]	.
.	[8d-X [8a-X [8b-X [8dd-X	.
=78	=78	=78
[4.FF [4.F	4d-] 4a-] 4b-] 4dd-]	.
.	8a-X 8cc 8ee-X	.
=79	=79	=79
4.FF] 4.F]	[4.a-X [4.cc [4.ee-X	.
=80	=80	=80
4.AA-X 4.A-X	4a-] 4cc] 4ee-]	.
.	8a-X 8dd-X 8ff	.
=81	=81	=81
*	*^	*
4.FF 4.F	4.a-X	4dd-X 4ee-X 4gg-X	.
.	.	8dd- 8ff 8aa-X	.
*	*v	*v	*
=82	=82	=82
8FF 8D-X 8A-X	8a-X 8cc 8ff 8aa-X	.
8r	8r	.
8r	8r	.
=83	=83	=83
8GG 8Dn 8G	8B 8f 8g 8b	.
8r	8r	.
8r	8r	.
=84	=84	=84
8EE 8E	8c 8g 8cc	.
8r	8r	.
8r	8r	.
=85	=85	=85
[4.EE-X [4.E-X	[4.d-X [4.g [4.cc [4.ee-X	.
=86	=86	=86
8.EE-L] 8.E-]	8.d-L] 8.g] 8.cc] 8.ee-]	.
16EE-Xk 16E-X	16d-Xk 16g-X	.
8EE-J 8E-	8d-J 8gn	.
=87	=87	=87
4AAA-X 4AA-X	4c 4b-X	.
8AA- 8A-X	[8c 8a-X	.
=88	=88	=88
4DD 4D	4c] 4f#X 4cc	.
8DD 8D	8F#X 8c 8e-X	.
=89	=89	=89
[4.GGG [4.GG	[4.G [4.B 4.e-X	.
=90	=90	=90
8GGG] 8GG]	8G] 8B] 8d	.
8r	8r	.
8AA 8A	8f 8cc 8ff	.
=91	=91	=91
[4.AA-X [4.A-X	[4.g-X [4.cc [4.ff [4.aa-X	.
=92	=92	=92
8.AA-L] 8.A-]	8.g-L] 8.cc] 8.ff] 8.aa-]	.
16AA-Xk 16A-X	16g-Xk 16cc-X	.
8AA-J 8A-	8g-J 8ccn	.
=93	=93	=93
4DD-X 4D-X	4f 4ee-X	.
8D- 8d-X	8f 8dd-X	.
=94	=94	=94
4GG 4G	4f 4b 4ff	.
8GG 8G	8f 8g 8b	.
=95	=95	=95
[4.CC [4.C	[4.e [4.g [4.cc	.
=96	=96	=96
4CC] 4C]	4e] 4g] 4cc]	.
8r	8cc	.
=97	=97	=97
*	*^	*
[4.BB-X [4.G-X [4.c	[4.g-X [4.b-X	[4.ee-X	.
=98	=98	=98	=98
4BB-] 4G-] 4c]	4g-] 4b-]	4ee-]	.
[8BB-X [8G-X [8d-X	[8g-X [8b-X	[8dd-X	.
=99	=99	=99	=99
8BB-] 8G-] 8d-]	8g-] 8b-]	8dd-]	.
8r	8rc	8raa	.
8BBB-X 8BB-X	8rc	8G-X 8d-X 8g-X	.
*	*v	*v	*
=100	=100	=100
[4.CC [4.C	[4.Gn [4.B-X [4.f	.
=101	=101	=101
4CC] 4C]	4G] 4B-] 4f]	.
[8CC [8C	[8G [8B-X [8e	.
=102	=102	=102
8CC] 8C]	8G] 8B-] 8e]	.
8r	8r	.
8r	8g	.
=103	=103	=103
*	*^	*
[4.FF [4.D-X [4.G	[4.d-X [4.f	[4.b-X	.
=104	=104	=104	=104
4FF] 4D-] 4G]	4d-] 4f]	4b-]	.
[8FF [8D-X [8A-X	[8d-X [8f	[8a-X	.
=105	=105	=105	=105
8FF] 8D-] 8A-]	8d-] 8f]	8a-]	.
8r	8rc	8raa	.
8FFF 8FF	8rc	8D-X 8A-X 8d-X	.
*	*v	*v	*
=106	=106	=106
[4.GGG [4.GG	[4.Dn [4.F [4.c	.
=107	=107	=107
4GGG] 4GG]	4D] 4F] 4c]	.
[8GGG [8GG	[8D [8F [8B	.
=108	=108	=108
8GGG] 8GG]	8D] 8F] 8B]	.
8r	8r	.
8EE 8E	8c 8g 8cc	.
=109	=109	=109
[4.EE-X [4.E-X	[4.d-X [4.g [4.cc [4.ee-X	.
=110	=110	=110
8.EE-L] 8.E-]	8.d-L] 8.g] 8.cc] 8.ee-]	.
16EE-Xk 16E-X	16d-Xk 16g-X	.
8EE-J 8E-	8d-J 8gn	.
=111	=111	=111
4AAA-X 4AA-X	4c 4b-X	.
8AA- 8A-X	[8c 8a-X	.
=112	=112	=112
4DD 4D	4c] 4f#X 4cc	.
8DD 8D	8F#X 8c 8e-X	.
=113	=113	=113
[4.GGG [4.GG	[4.G [4.B 4.e-X	.
=114	=114	=114
8GGG] 8GG]	8G] 8B] 8d	.
8r	8r	.
8AA 8A	8f 8cc 8ff	.
=115	=115	=115
[4.AA-X [4.A-X	[4.g-X [4.cc [4.ff [4.aa-X	.
=116	=116	=116
8.AA-L] 8.A-]	8.g-L] 8.cc] 8.ff] 8.aa-]	.
16AA-Xk 16A-X	16g-Xk 16cc-X	.
8AA-J 8A-	8g-J 8ccn	.
=117	=117	=117
4DD-X 4D-X	4f 4a-X 4dd-X 4ff	.
8AAn 8An	8f 8cc 8ff	.
=118	=118	=118
[4.AA-X [4.A-X	[4.g-X [4.cc [4.ff [4.aa-X	.
=119	=119	=119
8.AA-L] 8.A-]	8.g-L] 8.cc] 8.ff] 8.aa-]	.
16AA-Xk 16A-X	16g-Xk 16cc-X	.
8AA-J 8A-	8g-J 8ccn	.
=120	=120	=120
4.DD-X 4.D-X	4.f 4.a-X 4.dd-X 4.ff	.
=121	=121	=121
4.r	4.r	.
=122	=122	=122
8r	8r	.
8r	8r	.
8D-X 8d-X	8f 8dd-X	.
=123	=123	=123
4GG 4G	4f 4b 4ff	.
8GG 8G	8f 8g 8b	.
=124	=124	=124
8CC 8C	8e 8g 8cc	.
8r	8r	.
8r	8r	.
=125	=125	=125
8CCC 8CC	8C 8c	.
8r	8r	.
8r	8r	.
=126	=126	=126
4.r	4.r	.
==	==	==
*-	*-	*-
!!!system-decoration: {(*)}
!!!ENC: Bryan Jacob Bell
!!!END: November 2021 to April 2022
!!!PED: Konstantin Igumnov and Yakov Milstein
!!!PTL: A.N. Skryabin: Polnoe sobranie sochinenii dlia fortepiano (Muzgiz)
